icons/glyphs/glyph-scala.svg

<?xml version="1.0" encoding="UTF-8" standalone="no"?><svg height="16mm" viewBox="0 0 16 16" width="16mm" xmlns="http://www.w3.org/2000/svg"><sodipodi:namedview/><metadata><rdf:RDF><cc:Work><dc:format>image/svg+xml</dc:format><dc:type/><dc:title/></cc:Work></rdf:RDF></metadata><path d="m16-.0000096c-8.669816 3.1796411-12.255271 2.9912694-16 2.9091094v5.0909002c4.153767-.024739 10.589143-.5219322 16-2.9090819v-4.36363665zm0 8.0000096c-8.251982 2.858945-12.255271 2.991269-16 2.909082v5.090928c5.599072-.08191 10.712729-.566544 16-2.909109v-4.3636374z" fill="#d0d0d0" stroke-width=".727273"/></svg>

<?xml version="1.0" encoding="UTF-8" standalone="no"?>
<!-- Created with Inkscape (http://www.inkscape.org/) -->

<svg
   xmlns:dc="http://purl.org/dc/elements/1.1/"
   xmlns:cc="http://creativecommons.org/ns#"
   xmlns:rdf="http://www.w3.org/1999/02/22-rdf-syntax-ns#"
   xmlns:svg="http://www.w3.org/2000/svg"
   xmlns="http://www.w3.org/2000/svg"
   xmlns:sodipodi="http://sodipodi.sourceforge.net/DTD/sodipodi-0.dtd"
   xmlns:inkscape="http://www.inkscape.org/namespaces/inkscape"
   width="16mm"
   height="16mm"
   viewBox="0 0 16 16"
   version="1.1"
   id="svg8"
   inkscape:version="0.92+devel (bc9c9b4297, 2017-07-16, custom)"
   sodipodi:docname="glyph-scala.svg">
  <defs
     id="defs2" />
  <sodipodi:namedview
     id="base"
     pagecolor="#002466"
     bordercolor="#ffffff"
     borderopacity="0.38039216"
     inkscape:pageopacity="1"
     inkscape:pageshadow="2"
     inkscape:zoom="7.1685545"
     inkscape:cx="30.23622"
     inkscape:cy="30.23622"
     inkscape:document-units="mm"
     inkscape:current-layer="svg8"
     inkscape:document-rotation="0"
     showgrid="false"
     inkscape:showpageshadow="false"
     borderlayer="true"
     inkscape:window-width="1920"
     inkscape:window-height="1051"
     inkscape:window-x="0"
     inkscape:window-y="0"
     inkscape:window-maximized="1" />
  <metadata
     id="metadata5">
    <rdf:RDF>
      <cc:Work
         rdf:about="">
        <dc:format>image/svg+xml</dc:format>
        <dc:type
           rdf:resource="http://purl.org/dc/dcmitype/StillImage" />
        <dc:title></dc:title>
      </cc:Work>
    </rdf:RDF>
  </metadata>
  <path
     sodipodi:nodetypes="cccccccccccc"
     style="color:#4d4d4d;color-interpolation:sRGB;color-interpolation-filters:linearRGB;fill:#d0d0d0;stroke-width:0.72727275;color-rendering:auto;image-rendering:auto;shape-rendering:auto;text-rendering:auto"
     inkscape:connector-curvature="0"
     id="path1429"
     d="M 16,-9.6e-6 C 7.330184,3.1796315 3.744729,2.9912598 0,2.9090998 V 8 C 4.153767,7.975261 10.589143,7.4780678 16,5.0909181 V 0.72728145 Z M 16,8 C 7.748018,10.858945 3.744729,10.991269 0,10.909082 V 16.00001 C 5.599072,15.9181 10.712729,15.433466 16,13.090901 V 8.7272636 Z"
     inkscape:label="#" />
</svg>
